layout/bottom-panel/widgets/wifi/icons/wifi-strength-1-lock.svg

<svg enable-background="new 0 0 24.00 24.00" height="240" viewBox="0 0 24 24" width="240" xmlns="http://www.w3.org/2000/svg"><path d="m12 3c4.2186.0034 8.3164 1.4107 11.6465 4l-2.1016 2.6152-1.0449-.1152c-.5678.0017-1.1312.1001-1.666.291l1.8808-2.3418c-2.6301-1.589-5.6419-2.4355-8.7148-2.4492-3.07646.0077-6.09316.8502-8.72852 2.4375l5.11915 6.3672c1.13053-.5268 2.36217-.8014 3.60937-.8047 1.228.0054 2.4394.2762 3.5547.7891l-.0547.7109v2.6445l-3.4902 4.3457-11.634799-14.4902c3.324639-2.5848 7.413789-3.9918 11.624999-4zm11 13c.5 0 1 .5 1 1v4c0 .5-.5 1-1 1h-5c-.5 0-1-.5-1-1v-4c0-.5.5-1 1-1v-1.5c0-1.4 1.1-2.5 2.5-2.5s2.5 1.1 2.5 2.5zm-1 0v-1.5c0-.8-.7-1.5-1.5-1.5s-1.5.7-1.5 1.5v1.5z" fill="#f4f4f7" stroke-width=".2"/></svg>

﻿<?xml version="1.0" encoding="utf-8"?>
<!DOCTYPE svg PUBLIC "-//W3C//DTD SVG 1.1//EN" "http://www.w3.org/Graphics/SVG/1.1/DTD/svg11.dtd">
<svg xmlns="http://www.w3.org/2000/svg" xmlns:xlink="http://www.w3.org/1999/xlink" version="1.1" baseProfile="full"
	width="240" height="240" viewBox="0 0 24.00 24.00" enable-background="new 0 0 24.00 24.00" xml:space="preserve">
	<path fill="#f4f4f7" fill-opacity="1" stroke-width="0.2" stroke-linejoin="miter"
		d="M 12,3C 16.2186,3.0034 20.3164,4.4107 23.6465,7L 21.5449,9.6152L 20.5,9.5C 19.9322,9.5017 19.3688,9.6001 18.834,9.791L 20.7148,7.4492C 18.0847,5.8602 15.0729,5.0137 12,5C 8.92354,5.0077 5.90684,5.8502 3.27148,7.4375L 8.39063,13.8047C 9.52116,13.2779 10.7528,13.0033 12,13C 13.228,13.0054 14.4394,13.2762 15.5547,13.7891L 15.5,14.5L 15.5,17.1445L 12.0098,21.4902L 0.375001,7C 3.69964,4.4152 7.78879,3.0082 12,3 Z M 23,16C 23.5,16 24,16.5 24,17L 24,21C 24,21.5 23.5,22 23,22L 18,22C 17.5,22 17,21.5 17,21L 17,17C 17,16.5 17.5,16 18,16L 18,14.5C 18,13.1 19.1,12 20.5,12C 21.9,12 23,13.1 23,14.5L 23,16 Z M 22,16L 22,14.5C 22,13.7 21.3,13 20.5,13C 19.7,13 19,13.7 19,14.5L 19,16L 22,16 Z " />
</svg>
